components/Common/Svg/svgs/artificialIntelligence.svg

<svg
  width="90"
  height="90"
  viewBox="0 0 90 90"
  fill="none"
  xmlns="http://www.w3.org/2000/svg"
>
  <circle
    opacity="0.5"
    cx="45"
    cy="45"
    r="45"
    fill="#FFE603"
  ></circle>
  <path
    d="M37.26 30.586C38.624 29.553 40.289 28.9959 42 29C42.5909 28.9867 43.1756 29.1228 43.7 29.3954C44.2244 29.6681 44.6715 30.0687 45 30.56C45.3285 30.0687 45.7756 29.6681 46.3 29.3954C46.8244 29.1228 47.4091 28.9867 48 29C49.711 28.9959 51.376 29.553 52.74 30.586C53.79 31.402 54.6 32.532 54.886 33.898C55.542 33.948 56.142 34.22 56.646 34.63C57.41 35.25 57.966 36.18 58.316 37.164C58.864 38.694 59.012 40.644 58.444 42.304C58.588 42.372 58.73 42.452 58.868 42.544C59.418 42.91 59.836 43.434 60.144 44.052C60.75 45.262 61 46.95 61 49C61 51.282 60.13 52.814 59.026 53.76C58.4155 54.2834 57.695 54.6628 56.918 54.87C56.718 55.986 56.158 57.278 55.28 58.374C54.14 59.804 52.372 61 50 61C48.12 61 46.624 59.96 45.652 58.94C45.4196 58.6965 45.2019 58.4393 45 58.17C44.7981 58.4394 44.5804 58.6965 44.348 58.94C43.376 59.96 41.882 61 40 61C37.628 61 35.862 59.804 34.72 58.374C33.8995 57.3551 33.3376 56.153 33.082 54.87C32.305 54.6628 31.5845 54.2834 30.974 53.76C29.87 52.814 29 51.28 29 49C29 46.95 29.252 45.26 29.856 44.052C30.164 43.434 30.582 42.912 31.132 42.542C31.2671 42.4526 31.4088 42.3737 31.556 42.306C30.988 40.642 31.136 38.694 31.684 37.164C32.034 36.18 32.59 35.25 33.354 34.63C33.858 34.22 34.458 33.95 35.114 33.898C35.402 32.532 36.212 31.402 37.262 30.586H37.26ZM44 34V33.98L43.996 33.88C43.9666 33.3586 43.8628 32.8441 43.688 32.352C43.5635 31.9805 43.3516 31.6444 43.07 31.372C42.7746 31.1148 42.3913 30.9815 42 31C40.7339 30.9957 39.5009 31.4043 38.488 32.164C37.56 32.886 37 33.864 37 35C36.9999 35.1584 36.9621 35.3144 36.8899 35.4554C36.8177 35.5963 36.713 35.7181 36.5845 35.8106C36.456 35.9032 36.3074 35.9639 36.1508 35.9878C35.9942 36.0117 35.8343 35.998 35.684 35.948C35.308 35.824 34.972 35.894 34.614 36.182C34.222 36.502 33.84 37.07 33.566 37.836C33.008 39.4 33.066 41.294 33.832 42.446C33.9414 42.6101 33.9998 42.8028 34 43H35.5C36.6935 43 37.8381 43.4741 38.682 44.318C39.5259 45.1619 40 46.3065 40 47.5V48.17C40.6672 48.4059 41.2296 48.8701 41.5876 49.4805C41.9457 50.0909 42.0765 50.8082 41.9568 51.5057C41.8371 52.2032 41.4747 52.836 40.9337 53.2921C40.3926 53.7482 39.7077 53.9984 39 53.9984C38.2923 53.9984 37.6074 53.7482 37.0663 53.2921C36.5253 52.836 36.1629 52.2032 36.0432 51.5057C35.9235 50.8082 36.0543 50.0909 36.4124 49.4805C36.7704 48.8701 37.3328 48.4059 38 48.17V47.5C38 46.12 36.88 45 35.5 45H32C31.8804 44.9998 31.7619 44.9781 31.65 44.936L31.644 44.948C31.248 45.738 31 47.05 31 49C31 50.718 31.63 51.686 32.276 52.24C32.97 52.836 33.74 53 34 53C34.2652 53 34.5196 53.1054 34.7071 53.2929C34.8946 53.4804 35 53.7348 35 54C35 54.736 35.4 56.022 36.28 57.126C37.138 58.196 38.372 59 40 59C41.12 59 42.124 58.374 42.9 57.56C43.282 57.16 43.58 56.746 43.774 56.406C43.8623 56.2552 43.9379 56.0973 44 55.934V40H41.83C41.5941 40.6672 41.1299 41.2296 40.5195 41.5876C39.9091 41.9457 39.1918 42.0765 38.4943 41.9568C37.7968 41.8371 37.164 41.4747 36.7079 40.9337C36.2518 40.3926 36.0016 39.7077 36.0016 39C36.0016 38.2923 36.2518 37.6074 36.7079 37.0663C37.164 36.5253 37.7968 36.1629 38.4943 36.0432C39.1918 35.9235 39.9091 36.0543 40.5195 36.4124C41.1299 36.7704 41.5941 37.3328 41.83 38H44V34ZM46 53.998V55.932C46.0621 56.0953 46.1377 56.2532 46.226 56.404C46.422 56.744 46.718 57.158 47.098 57.558C47.876 58.372 48.882 58.998 50 58.998C51.628 58.998 52.862 58.194 53.72 57.124C54.6 56.02 55 54.734 55 53.998C55 53.7328 55.1054 53.4784 55.2929 53.2909C55.4804 53.1034 55.7348 52.998 56 52.998C56.26 52.998 57.03 52.834 57.724 52.238C58.37 51.684 59 50.716 59 48.998C59 47.048 58.75 45.738 58.356 44.946C58.2242 44.6511 58.0173 44.3959 57.756 44.206C57.5308 44.062 57.2671 43.9902 57 44C56.8191 43.9999 56.6416 43.9507 56.4865 43.8578C56.3313 43.7648 56.2043 43.6315 56.1189 43.472C56.0335 43.3125 55.993 43.1329 56.0017 42.9522C56.0103 42.7715 56.0678 42.5966 56.168 42.446C56.936 41.294 56.992 39.4 56.434 37.836C56.16 37.07 55.778 36.5 55.386 36.182C55.028 35.894 54.692 35.822 54.316 35.948C54.1657 35.998 54.0058 36.0117 53.8492 35.9878C53.6926 35.9639 53.544 35.9032 53.4155 35.8106C53.287 35.7181 53.1823 35.5963 53.1101 35.4554C53.0379 35.3144 53.0001 35.1584 53 35C53 33.864 52.44 32.886 51.51 32.164C50.4977 31.4047 49.2654 30.9961 48 31C47.6087 30.9815 47.2254 31.1148 46.93 31.372C46.6476 31.6441 46.4349 31.9803 46.31 32.352C46.1196 32.8744 46.0149 33.4242 46 33.98V52H47.5C48.88 52 50 50.88 50 49.5V45.83C49.3328 45.5941 48.7704 45.1299 48.4124 44.5195C48.0543 43.9091 47.9235 43.1918 48.0432 42.4943C48.1629 41.7968 48.5253 41.164 49.0663 40.7079C49.6074 40.2517 50.2923 40.0016 51 40.0016C51.7077 40.0016 52.3926 40.2517 52.9337 40.7079C53.4747 41.164 53.8371 41.7968 53.9568 42.4943C54.0765 43.1918 53.9457 43.9091 53.5876 44.5195C53.2296 45.1299 52.6672 45.5941 52 45.83V49.5C52 50.6935 51.5259 51.8381 50.682 52.682C49.8381 53.5259 48.6935 54 47.5 54H46V53.998ZM38 39C38 39.2652 38.1054 39.5196 38.2929 39.7071C38.4804 39.8946 38.7348 40 39 40C39.2652 40 39.5196 39.8946 39.7071 39.7071C39.8946 39.5196 40 39.2652 40 39C40 38.7348 39.8946 38.4804 39.7071 38.2929C39.5196 38.1054 39.2652 38 39 38C38.7348 38 38.4804 38.1054 38.2929 38.2929C38.1054 38.4804 38 38.7348 38 39ZM51 44C51.2652 44 51.5196 43.8946 51.7071 43.7071C51.8946 43.5196 52 43.2652 52 43C52 42.7348 51.8946 42.4804 51.7071 42.2929C51.5196 42.1054 51.2652 42 51 42C50.7348 42 50.4804 42.1054 50.2929 42.2929C50.1054 42.4804 50 42.7348 50 43C50 43.2652 50.1054 43.5196 50.2929 43.7071C50.4804 43.8946 50.7348 44 51 44ZM39 50C38.7348 50 38.4804 50.1054 38.2929 50.2929C38.1054 50.4804 38 50.7348 38 51C38 51.2652 38.1054 51.5196 38.2929 51.7071C38.4804 51.8946 38.7348 52 39 52C39.2652 52 39.5196 51.8946 39.7071 51.7071C39.8946 51.5196 40 51.2652 40 51C40 50.7348 39.8946 50.4804 39.7071 50.2929C39.5196 50.1054 39.2652 50 39 50Z"
    fill="black"
  ></path>
</svg>

<svg width="90" height="90" viewBox="0 0 90 90" fill="none" xmlns="http://www.w3.org/2000/svg"><circle opacity=".5" cx="45" cy="45" r="45" fill="#FFE603"/><path d="M37.26 30.586A7.82 7.82 0 0 1 42 29a3.514 3.514 0 0 1 3 1.56A3.514 3.514 0 0 1 48 29a7.82 7.82 0 0 1 4.74 1.586c1.05.816 1.86 1.946 2.146 3.312.656.05 1.256.322 1.76.732.764.62 1.32 1.55 1.67 2.534.548 1.53.696 3.48.128 5.14.144.068.286.148.424.24.55.366.968.89 1.276 1.508C60.75 45.262 61 46.95 61 49c0 2.282-.87 3.814-1.974 4.76a5.361 5.361 0 0 1-2.108 1.11c-.2 1.116-.76 2.408-1.638 3.504C54.14 59.804 52.372 61 50 61c-1.88 0-3.376-1.04-4.348-2.06-.232-.243-.45-.5-.652-.77-.202.27-.42.526-.652.77C43.376 59.96 41.882 61 40 61c-2.372 0-4.138-1.196-5.28-2.626a8.114 8.114 0 0 1-1.638-3.504 5.361 5.361 0 0 1-2.108-1.11C29.87 52.814 29 51.28 29 49c0-2.05.252-3.74.856-4.948.308-.618.726-1.14 1.276-1.51.135-.09.277-.168.424-.236-.568-1.664-.42-3.612.128-5.142.35-.984.906-1.914 1.67-2.534.504-.41 1.104-.68 1.76-.732.288-1.366 1.098-2.496 2.148-3.312h-.002ZM44 34v-.02l-.004-.1a5.488 5.488 0 0 0-.308-1.528 2.444 2.444 0 0 0-.618-.98A1.52 1.52 0 0 0 42 31a5.82 5.82 0 0 0-3.512 1.164C37.56 32.886 37 33.864 37 35a1 1 0 0 1-1.316.948c-.376-.124-.712-.054-1.07.234-.392.32-.774.888-1.048 1.654-.558 1.564-.5 3.458.266 4.61A1 1 0 0 1 34 43h1.5a4.5 4.5 0 0 1 4.5 4.5v.67a3 3 0 1 1-2 0v-.67a2.5 2.5 0 0 0-2.5-2.5H32a.999.999 0 0 1-.35-.064l-.006.012C31.248 45.738 31 47.05 31 49c0 1.718.63 2.686 1.276 3.24.694.596 1.464.76 1.724.76a1 1 0 0 1 1 1c0 .736.4 2.022 1.28 3.126C37.138 58.196 38.372 59 40 59c1.12 0 2.124-.626 2.9-1.44.382-.4.68-.814.874-1.154a3.15 3.15 0 0 0 .226-.472V40h-2.17a3 3 0 1 1 0-2H44v-4Zm2 19.998v1.934c.062.163.138.321.226.472.196.34.492.754.872 1.154.778.814 1.784 1.44 2.902 1.44 1.628 0 2.862-.804 3.72-1.874.88-1.104 1.28-2.39 1.28-3.126a1 1 0 0 1 1-1c.26 0 1.03-.164 1.724-.76.646-.554 1.276-1.522 1.276-3.24 0-1.95-.25-3.26-.644-4.052a1.846 1.846 0 0 0-.6-.74A1.314 1.314 0 0 0 57 44a1 1 0 0 1-.832-1.554c.768-1.152.824-3.046.266-4.61-.274-.766-.656-1.336-1.048-1.654-.358-.288-.694-.36-1.07-.234A1 1 0 0 1 53 35c0-1.136-.56-2.114-1.49-2.836A5.82 5.82 0 0 0 48 31a1.52 1.52 0 0 0-1.07.372 2.44 2.44 0 0 0-.62.98A5.158 5.158 0 0 0 46 33.98V52h1.5a2.5 2.5 0 0 0 2.5-2.5v-3.67a3 3 0 1 1 2 0v3.67a4.5 4.5 0 0 1-4.5 4.5H46v-.002ZM38 39a1 1 0 1 0 2 0 1 1 0 0 0-2 0Zm13 5a1 1 0 1 0 0-2 1 1 0 0 0 0 2Zm-12 6a1 1 0 1 0 0 2 1 1 0 0 0 0-2Z" fill="#000"/></svg>
